!!!COM: Mozart
!!!OTL: Zwolf Variationen in C uber ein Menuett von Johann Christian Fischer
!!!Variation: Variation 5 c
**function	**harm	**kern	**kern
*	*	*clefF4	*clefG2
*	*	*k[]	*k[]
*M3/4	*M3/4	*M3/4	*M3/4
*C:	*C:	*C:	*C:
=134	=134	=134	=134
2.D	G:maj	12GL	4g 4b 4dd
.	.	12B	.
.	.	12dJ	.
.	.	12GL	(16ccL
.	.	.	8.bJ)
.	.	12B	.
.	.	12dJ	.
.	.	12GL	(16aL
.	.	.	8.gJ)
.	.	12B	.
.	.	12dJ	.
=135	=135	=135	=135
2.D	C:maj/5	12GL	4g 4cc 4ee
.	.	12c	.
.	.	12eJ	.
.	.	12GL	(16ddL
.	.	.	8.ccJ)
.	.	12c	.
.	.	12eJ	.
.	.	12GL	(16bL
.	.	.	8.ccJ)
.	.	12c	.
.	.	12eJ	.
=136	=136	=136	=136
2D	G:7	12GL	4g 4b 4dd 4ff
.	.	12B	.
.	.	12dJ	.
.	.	12GL	(16eeL
.	.	.	8.ddJ)
.	.	12B	.
.	.	12dJ	.
4D	G:7/b7	12FL	(16ccL
.	.	.	8.bJ)
.	.	12G	.
.	.	12dJ	.
=137	=137	=137	=137
4T	C:maj/3	12EL	4g 4cc 4ee 4gg
.	.	12G	.
.	.	12cJ	.
4T	C:maj	12CL	4cc 4ee 4gg 4ccc
.	.	12E	.
.	.	12GJ	.
4T	F:maj/5	12CL	4a 4cc 4ff 4aa
.	.	12F	.
.	.	12AJ	.
=138	=138	=138	=138
2T	C:maj	12CL	4g 4cc 4ee 4gg
.	.	12E	.
.	.	12GJ	.
.	.	12CL	4cc 4ee 4gg 4ccc
.	.	12E	.
.	.	12GJ	.
4T	F:maj/5	12CL	4a 4cc 4ff 4aa
.	.	12F	.
.	.	12AJ	.
=139	=139	=139	=139
4T	C:maj	12CL	(8.ggL
.	.	12E	.
.	.	12GJ	.
.	.	.	32ff#LL
.	.	.	32ggJJJ)
4T	G:7/3	12BBL	(8.ffL
.	.	12D	.
.	.	12GJ	.
.	.	.	32eeLL
.	.	.	32ffJJJ)
4T	C:maj	12CL	(8.eeL
.	.	12E	.
.	.	12GJ	.
.	.	.	32ddLL
.	.	.	32eeJJJ)
=140	=140	=140	=140
4T	G:7/b7	4F	(12ddL
.	.	.	12b
.	.	.	12gJ
4T	C:maj/3	4E	12eeL
.	.	.	12cc
.	.	.	12gJ
4T	G:7/5	4D	12ffL
.	.	.	12dd
.	.	.	12bJ)
=141	=141	=141	=141
4T	C:maj/3	12EL	(8.ggL
.	.	12G	.
.	.	12cJ	.
.	.	.	32ff#LL
.	.	.	32ggJJJ)
4T	G:7/5	12DL	(8.ffL
.	.	12G	.
.	.	12BJ	.
.	.	.	32eeLL
.	.	.	32ffJJJ)
4T	C:maj	12CL	(8.eeL
.	.	12G	.
.	.	12cJ	.
.	.	.	32ddLL
.	.	.	32eeJJJ)
=142	=142	=142	=142
2.D	G:maj	4G 4B	(8.ddL
.	.	.	32cc#LL
.	.	.	32ddJJJ)
.	.	4r	(12ccL
.	.	.	12dd
.	.	.	12bJ
.	.	4r	12a'L)
.	.	.	(12b
.	.	.	12gJ)
*-	*-	*-	*-
!!!EMD: Edited in humdrumR 0.7.0.3 on 2024-01-19
